X:1
T: Captain Montgomery's Fancy
M: 6/8
B: James Campbell's Collection 1798
Z: source from Highland Music Trust, chords by Gary Whaley
L: 1/8
K:Eb
|!segno! "Eb" e2e (ed)e | "Bb" (f3 d2) B |"Eb" g2g (gf)g | "Bb" (a3 f2) d| \
"Eb" b2b (ga)b | "Bb" aga fga | "Eb" gba gfe | "Bb" dcB AGF |
|"Eb" e2e (ed)e | "Bb" (f3 d2) B |"Eb" g2g (gf)g | "Bb" (a3 f2) d| \
"Eb" b2b (ga)b | "Bb" aga fga | "Eb" gbg "Bb" afd | "Eb" eee !fermata! e3 ||
|"Eb/G" e2d (Bc)_d | "Ab" (_d2c) c3 | "Ab" fga "F" gfe | "Bb" dec Bcd |\
"Eb" e2e e2_d | "Ab" _d2c c2a | "Eb" gaf "Bb" efd | "Eb" d3 e3 !segno! ||